X:1
T:Partenza-Mi Parto
T:Mi parto e nel-Partenza
T:Giovanni Stefani
T:Source : Affetti amorosi-Cabzonette ad una voce sola---Venetia---A.Vincenti---1621. Editor : André Vierendeels (21/11/15).
T:Notes : Original clefs : C1, F4 Alfabetto et Intavolatura per chitarra spagnola Terza bimpressione (first print 1618)
C:Giovanni Stefani
%%score 1 { ( 2 3 ) | 4 }
L:1/8
Q:1/4=80
M:4/4
K:F
V:1 treble nm="Soprano" snm="S"
V:2 treble nm="BC" snm="BC"
V:3 treble 
V:4 bass 
V:1
 z4 c4 | d>c c>B A4- | ABBA G4 | F8 :: z ccd _eded | c2 B2 A4 | G6 =B2 | =B2 c2 c2 B2 | c4 c2 AA | %9
w: Mi|par- to'e nel par- tir|_ ti di- co'a- mo-|re,|ch'in- giu- sta- men- te tu mi|dai do- lo-|re,- es-|sen- dot' ip fe-|de- le, bo- na|
w: Mi|par- to'e nel par- tir|_ vuo pas- so, pas-|so,|ti rac- co- man- do'il cor ch'in|pe- gno las-|so, ben|mio po- che pa-|ro- le, bo- na|
w: Mi|par- to'e nel par- tir'|_ vo pia- no, pia-|no,|ti ba- cio'il pie- d'e l'u- na'e|al- tra ma-|no, que-|st'al- m'a te s'in-|chi- na, bo- na|
w: Mi|par- to'e quan- to du-|* ra'e sta par- ten-|za,|con gl'oc- chi mol- li ti cer-|co li- cen-|za, gri-|dan- do sem- pre'a-|i- ta, bo- na|
w: Mi|par- to'e lo mio spir-|* to va gri- dan-|do,|e que- sto'af- flit- to cor ti|rac- co- man-|do, e|nell' ul- ti- mo'a-|Di- o, bo- na|
 B2 Bd d2 ^c2 | d6 cc | B2 BA G4 | F8 :| %13
w: no- te, cru- de- *|le, bo- na|no- te, cru- de-|le.|
w: not- te, mio so- *|le, bo- na|not- te, mio so-|le.|
w: not- te, Re- gi- *|na, bo- na|not- te, Re- gi-|na.|
w: not- te, mia vi- *|ta, bo- na|not- te, mia vi-|ta.|
w: no- te, cor mi- *|o, bo- na|not- te, cor mi-|o.|
V:2
 c8 | d2 G4 ^F2 | G2 B2 c4 | A8 :: A4 c2 G2 | G6 ^F2 | G6 =B2 | d2 c4 d2 | G6 c2 | B4 A4 | A6 c2 | %11
 d4 c4 | A8 :| %13
V:3
 A8 | F2 E2 D4- | D4 F2 E2 | F8 :: F4 _E4 | C2 D2 D4 | B,4 D4 | G4 A2 G2 | E6 A2 | D4 E4 | ^F6 E2 | %11
 F6 E2 | F8 :| %13
V:4
 F,8 | B,,2 C,2 D,4 | B,,4 C,4 | F,,8 :: F,2 _E,D, C,4- | C,2 G,,2 D,4 | G,,8 | G,,2 E,2 F,2 G,2 | %8
 C,6 F,2 | G,2 G,,2 A,,4 | D,6 A,,2 | B,,4 C,4 | F,,8 :| %13

